static/assets/open-menu.svg

<svg xmlns="http://www.w3.org/2000/svg" fill="none" viewBox="0 0 45 21">
    <path fill="#FFFF" d="M0 19.5c0-.8284.671573-1.5 1.5-1.5h32c.8284 0 1.5.6716 1.5 1.5s-.6716 1.5-1.5 1.5h-32C.671574 21 0 20.3284 0 19.5Zm0-18C0 .671573.671573 0 1.5 0h37c.8284 0 1.5.671573 1.5 1.5 0 .82843-.6716 1.5-1.5 1.5h-37C.671574 3 0 2.32843 0 1.5Zm0 9C0 9.67157.671573 9 1.5 9h42c.8284 0 1.5.67157 1.5 1.5 0 .8284-.6716 1.5-1.5 1.5h-42C.671574 12 0 11.3284 0 10.5Z"/>
</svg>

<svg width="40" height="18" viewBox="0 0 45 21" fill="none" xmlns="http://www.w3.org/2000/svg">
<path d="M0 19.5C0 18.6716 0.671573 18 1.5 18H33.5C34.3284 18 35 18.6716 35 19.5C35 20.3284 34.3284 21 33.5 21H1.5C0.671574 21 0 20.3284 0 19.5Z" fill="#fff"/>
<path d="M0 1.5C0 0.671573 0.671573 0 1.5 0H38.5C39.3284 0 40 0.671573 40 1.5C40 2.32843 39.3284 3 38.5 3H1.5C0.671574 3 0 2.32843 0 1.5Z" fill="#fff"/>
<path d="M0 10.5C0 9.67157 0.671573 9 1.5 9H43.5C44.3284 9 45 9.67157 45 10.5C45 11.3284 44.3284 12 43.5 12H1.5C0.671574 12 0 11.3284 0 10.5Z" fill="#fff"/>
</svg>
